src/assets/compendia/icons/tokens-core/faction-trill-rank-1-token.svg

<svg xmlns="http://www.w3.org/2000/svg" xml:space="preserve" style="fill-rule:evenodd;clip-rule:evenodd;stroke-linecap:round;stroke-miterlimit:1.5" viewBox="0 0 256 256"><path d="M0 0h256v256H0z" style="fill:none"/><g><circle cx="128" cy="128" r="128"/><path d="M128 0c70.645 0 128 57.355 128 128s-57.355 128-128 128S0 198.645 0 128 57.355 0 128 0m0 8C61.77 8 8 61.77 8 128s53.77 120 120 120 120-53.77 120-120S194.23 8 128 8" style="fill:#ccc"/><path d="M2133.73 25.719h1.81v-2.088h.56v2.088h.41v-2.088h.56v2.088h2.51v.396l-.19.24h-2.32v2.16h-.56v-2.16h-.41v2.16h-.56v-2.16h-1.81q-1.335 0-2.28-.936c-.63-.624-.94-1.38-.94-2.268q0-.564.21-1.116l-.15-.24.28-.3h.13q.435-.708 1.14-1.116c.5-.288 1.03-.432 1.61-.432s1.12.144 1.61.432c.51.312.89.684 1.15 1.116h1.94q.375.012.75.444c.23.256.35.508.37.756l-.19.192h-1.66v.312l-.15.156-2.43.012q-.105.516-.48.858c-.26.228-.56.342-.91.342-.4 0-.74-.14-1.01-.42s-.41-.612-.41-.996c0-.312.1-.604.31-.876h-1.3c-.11.28-.16.572-.16.876q0 1.056.75 1.812c.5.504 1.1.756 1.82.756m1.98-4.224q-.75-.9-1.98-.9c-.8 0-1.45.3-1.97.9z" style="fill:#ccc;fill-rule:nonzero" transform="translate(-35173.7 -272.652)scale(16.5344)"/><circle cx="1928" cy="1439" r="9" style="fill:none;stroke:#ccc;stroke-width:8px" transform="translate(-1800 -1200)"/></g></svg>

<?xml version="1.0" encoding="UTF-8" standalone="no"?>
<!DOCTYPE svg PUBLIC "-//W3C//DTD SVG 1.1//EN" "http://www.w3.org/Graphics/SVG/1.1/DTD/svg11.dtd">
<svg width="100%" height="100%" viewBox="0 0 256 256" version="1.1" xmlns="http://www.w3.org/2000/svg" xmlns:xlink="http://www.w3.org/1999/xlink" xml:space="preserve" xmlns:serif="http://www.serif.com/" style="fill-rule:evenodd;clip-rule:evenodd;stroke-linecap:round;stroke-miterlimit:1.5;">
    <g transform="matrix(1,0,0,1,-6000,-1200)">
        <g transform="matrix(1,0,0,1,6000,1200)">
            <rect id="faction-trill-rank-1-token" x="0" y="0" width="256" height="256" style="fill:none;"/>
            <g id="faction-trill-rank-1-token1" serif:id="faction-trill-rank-1-token">
                <circle cx="128" cy="128" r="128"/>
                <path d="M128,0C198.645,0 256,57.355 256,128C256,198.645 198.645,256 128,256C57.355,256 0,198.645 0,128C0,57.355 57.355,0 128,0ZM128,8C61.77,8 8,61.77 8,128C8,194.23 61.77,248 128,248C194.23,248 248,194.23 248,128C248,61.77 194.23,8 128,8Z" style="fill:rgb(204,204,204);"/>
                <g transform="matrix(16.5344,0,0,16.5344,-35173.7,-272.652)">
                    <g id="Trill">
                        <path id="Trill1" serif:id="Trill" d="M2133.73,25.719L2135.54,25.719L2135.54,23.631L2136.1,23.631L2136.1,25.719L2136.51,25.719L2136.51,23.631L2137.07,23.631L2137.07,25.719L2139.58,25.719L2139.58,26.115L2139.39,26.355L2137.07,26.355L2137.07,28.515L2136.51,28.515L2136.51,26.355L2136.1,26.355L2136.1,28.515L2135.54,28.515L2135.54,26.355L2133.73,26.355C2132.84,26.355 2132.08,26.043 2131.45,25.419C2130.82,24.795 2130.51,24.039 2130.51,23.151C2130.51,22.775 2130.58,22.403 2130.72,22.035L2130.57,21.795L2130.85,21.495L2130.98,21.495C2131.27,21.023 2131.65,20.651 2132.12,20.379C2132.62,20.091 2133.15,19.947 2133.73,19.947C2134.31,19.947 2134.85,20.091 2135.34,20.379C2135.85,20.691 2136.23,21.063 2136.49,21.495L2138.43,21.495C2138.68,21.503 2138.93,21.651 2139.18,21.939C2139.41,22.195 2139.53,22.447 2139.55,22.695L2139.36,22.887L2137.7,22.887L2137.7,23.199L2137.55,23.355L2135.12,23.367C2135.05,23.711 2134.89,23.997 2134.64,24.225C2134.38,24.453 2134.08,24.567 2133.73,24.567C2133.33,24.567 2132.99,24.427 2132.72,24.147C2132.45,23.867 2132.31,23.535 2132.31,23.151C2132.31,22.839 2132.41,22.547 2132.62,22.275L2131.32,22.275C2131.21,22.555 2131.16,22.847 2131.16,23.151C2131.16,23.855 2131.41,24.459 2131.91,24.963C2132.41,25.467 2133.01,25.719 2133.73,25.719ZM2135.71,21.495C2135.21,20.895 2134.55,20.595 2133.73,20.595C2132.93,20.595 2132.28,20.895 2131.76,21.495L2135.71,21.495Z" style="fill:rgb(204,204,204);fill-rule:nonzero;"/>
                    </g>
                </g>
                <g transform="matrix(1,0,0,1,-1800,-1200)">
                    <circle cx="1928" cy="1439" r="9" style="fill:none;stroke:rgb(204,204,204);stroke-width:8px;"/>
                </g>
            </g>
        </g>
    </g>
</svg>
